!!!!SEGMENT: pl-kk--kk-i-382--022-001_anonim--nro-7-alleluia-ave-maria.krn
!!!cenid: 18xx:1493
!!!COM: Anonim
!!!COM-rismID: pe30004985
!!!CDT:
!!!CNT:
!!!OPR: Nro 7
!!!OTL: Alleluia Ave Maria
!!!OMV: 004
!!!PDT:
!!!AGN: Sacred
!!!SMS-siglum: PL-Kk
!!!SMS-shelfmark: Kk.I.382
!!!SMS-shelfwork: 007-004 M
!!!SMS-variant:
!!!SMS-altvar:
!!!NIFC-rismSourceID: 1001139027
!!!NIFC-rismChildID: 1001139139
!!!NIFC-islandoraID: pl-kk:6162
!!!URL-pdf-islandora: https://repozytorium.nifc.pl/islandora/object/pl-kk%3A6162/datastream/PDF/view
!!!URL-scan: https://polish.musicsources.pl/pl/lokalizacje/galeria/rekopisy/5994 @EN{Scan on Polish Music Sources Website} @PL{Skany w portalu Dziedzictwo Muzyki Polskiej w otwartym dostępie}
!!!ONB-nifc: UWAGA: obsada: S (T 1), A (B 1), T 2, B 2; S (T 1): skan 0020-0021; A (B 1): skan 0166; T 2: skan 0092; B 2: skan 0238
!!!AIN: 1 alto 1 bass 2 tenor
!!!key:
**kern	**text	**kern	**text	**kern	**text	**kern	**text
*part4	*part4	*part3	*part3	*part2	*part2	*part1	*part1
*staff4	*staff4	*staff3	*staff3	*staff2	*staff2	*staff1	*staff1
*Ibass	*	*Itenor	*	*Ialto	*	*Itenor	*
*I"Basso II	*	*I"Tenore II	*	*I"Alto vel Basso I	*	*I"Soprano vel Tenore I.	*
*I'B 2	*	*I'T 2	*	*I'A (B 1)	*	*I'S (T 1)	*
*clefF4	*	*clefC4	*	*clefC3	*	*clefC1	*
*k[]	*	*k[]	*	*k[]	*	*k[]	*
*C:	*	*C:	*	*C:	*	*C:	*
*M3/2	*	*M3/4	*	*M3/2	*	*M3/4	*
=1	=1	=1	=1	=1	=1	=1	=1
*2\right	*	*2\right	*	*2\right	*	*2\right	*
*	*	*rscale:1/2	*	*	*	*rscale:1/2	*
!LO:TX:t=P:problem=all\right&colon; global	!	!LO:TX:t=P:problem=all\right&colon; global	!	!LO:TX:t=P:problem=all\right&colon; global	!	!LO:TX:t=P:problem=all\right&colon; global	!
!	!	!LO:TX:t=P:problem=w źródle metrum 3/4, ale w innych głosach 3/2; zastosowano rscale	!	!	!	!	!
!	!	!	!	!	!	!LO:TX:t=P:problem=w źródle metrum 3/4, ale w innych głosach 3/2; zastosowano rscale	!
!LO:TX:a:t=P:problem=w źródle ta adnotacja zapisana przed pierwszym taktem, na pięciolinii	!	!LO:TX:a:t=P:problem=w źródle ta adnotacja zapisana przed pierwszym taktem, na pięciolinii	!	!LO:TX:a:t=P:problem=w źródle ta adnotacja zapisana przed pierwszym taktem, na pięciolinii i częściowo przed pięciolinią	!	!LO:TX:a:t=P:problem=w źródle ta adnotacja zapisana przed pierwszym taktem, na pięciolinii i częściowo przed pięciolinią	!
!LO:TX:a:i:t=Graduale	!	!LO:TX:a:i:t=Graduale	!	!LO:TX:a:i:t=Graduale.	!	!LO:TX:a:i:t=Graduale.	!
1C	Al-	1e	Al-	1g	Al-	1cc	Al-
2c\	-le-	2e\	-le-	2g\	-le-	2cc\	-le-
=2	=2	=2	=2	=2	=2	=2	=2
(>2G\	-lu-	2d\	-lu-	2g\	-lu-	2b\	-lu-
2F\)	.	2d\	-ia	2g\	-ia	2b\	-ia
2E\	-ia	2e\	al-	2g\	al-	2cc\	al-
=3	=3	=3	=3	=3	=3	=3	=3
1D	al-	1f	-le-	1f	-le-	1cc	-le-
2D\	-le-	2d\	-lu-	2f\	-lu-	2b\	-lu-
=4	=4	=4	=4	=4	=4	=4	=4
1C	-lu-	2G/	-ia	2e\	-ia	1cc	-ja
.	.	2A\	al-	(>2e\	al-	.	.
2D\	-ia	2B\	.	2f\)	.	(>4b\L	al-
.	.	.	.	.	.	4a\)J	.
=5	=5	=5	=5	=5	=5	=5	=5
2E\	al-	2c\	.	(>2g\	-le-	2g\	-le-
1F#X	-le-	2.d\	.	2.f#X\)	.	1a	-lu-
.	.	4c\	-le-	4e\	-lu-	.	.
!	!	!	!	!LO:LB:g=original	!	!LO:LB:g=original	!
=6	=6	=6	=6	=6	=6	=6	=6
2G\	-lu-	2B\	-lu-	2d\	-ia	2b\	-ja
2D\	-ia	2A\	-ia	(>2f#X\	al-	1dd	al-
!LO:TX:a:t=P:problem=w źródle ta adnotacja zapisana za taktem 6, na pięciolinii	!	!	!	!	!	!	!
!LO:TX:b:i:t=V&colon; S&colon;	!	!	!	!	!	!	!
2E\	al-	2e\	al-	2g\)	.	.	.
!LO:PB:g=original	!	!	!	!	!	!	!
=7	=7	=7	=7	=7	=7	=7	=7
(>2C/	-le-	2e\	-le-	1g	-le-	(>4cc\L	-le-
.	.	.	.	.	.	4b\)J	.
!	!	!LO:TX:a:t=P:problem=w źródle ta adnotacja zapisana za taktem 7, na pięciolinii	!	!	!	!	!
!	!	!LO:TX:b:i:t=V&colon; S&colon;	!	!	!	!	!
2D\)	.	1d	-lu-	.	.	1a	-lu-
2D\	-lu-	.	.	2f#X\	-lu-	.	.
!	!	!LO:PB:g=original	!	!	!	!	!
=8	=8	=8	=8	=8	=8	=8	=8
2GG/	-ia	2d\	-ia	2g\	-ia	2b\	-ja
4G\	al-	2d\	al-	(>2d\	al-	1b	al-
4F\	.	.	.	.	.	.	.
2E\	.	2e\	-le-	2e\)	.	.	.
=9	=9	=9	=9	=9	=9	=9	=9
2A\	-le-	1e	-lu-	2e\	-le-	(>2cc\	-le-
2E\	.	.	.	2g#X\	.	2ee\)	.
2F\	.	2c\	-ia	2a\	.	2cc\	-lu-
=10	=10	=10	=10	=10	=10	=10	=10
2D\	.	2f\	al-	1a	.	2b\	-ja
2.E\	.	1e	-le-	.	.	1b	al-
.	.	.	.	2g#X\	-lu-	.	.
4E\	-lu-	.	.	.	.	.	.
=11	=11	=11	=11	=11	=11	=11	=11
2AA/	-ia	2e\	-lu-	2a\	-ia	[>1.cc	-le-
(>2E\	al-	2c\	-ia	(>2gn\	al-	.	.
2F\)	.	2A\	al-	2f\)	.	.	.
!	!	!	!	!LO:LB:g=original	!	!	!
=12	=12	=12	=12	=12	=12	=12	=12
(<4C/	-le-	2G/	-le-	2e\	-le-	1cc]	.
4E/	.	.	.	.	.	.	.
2G\)	.	1G	-lu-	1d	-lu-	.	.
2GG/	-lu-	.	.	.	.	2b\	-lu-
=13	=13	=13	=13	=13	=13	=13	=13
1.C	-ia	1.G	-ia	1.e	-ia	1.cc	-ja
!LO:LB:g=original	!	!LO:LB:g=original	!	!	!	!LO:LB:g=original	!
==14	==14	==14	==14	==14	==14	==14	==14
*M3/2	*	*M3/4	*	*	*	*M3/4	*
!	!	!LO:TX:t=P:problem=w źródle metrum 3/4, ale w innych głosach 3/2; zastosowano rscale	!	!	!	!LO:TX:t=P:problem=w źródle metrum 3/4, ale w innych głosach 3/2; zastosowano rscale	!
2G\	A-	2g\	A-	2g\	A-	2gg\	A-
2G\	-ve	2g\	-ve	2g\	-ve	2gg\	-ve
2G\	ma-	2g\	ma-	2g\	ma-	2gg\	ma,
=15	=15	=15	=15	=15	=15	=15	=15
2.E\	-ri-	2.e\	-ri-	(>2.e\	-ri-	2cc\	A-
.	.	.	.	.	.	2cc\	-ve
4D\	.	4d\	.	4d\)	.	.	.
2C/	-a	2c\	-a	2c\	-a	2cc\	ma-
!	!	!LO:LB:g=original	!	!	!	!	!
=16	=16	=16	=16	=16	=16	=16	=16
!	!	!LO:TX:a:t=1.	!	!	!	!	!
2G\	A-	1.r	.	2d\	a-	(>2.b\	-ri-
2G\	-ve	.	.	2d\	-ve	.	.
.	.	.	.	.	.	4a\)	.
2G\	ma-	.	.	2d\	ma-	2g\	-a
=17	=17	=17	=17	=17	=17	=17	=17
2.E\	-ri-	2c\	A-	(>2.e\	-ri-	2g\	gra-
.	.	2c\	-ve	.	.	4a\L	.
4D\	.	.	.	4f\)	.	4b\J	.
2C/	-a	2c\	ma-	2g\	-a	2cc\	.
!	!	!	!	!LO:LB:g=original	!	!	!
=18	=18	=18	=18	=18	=18	=18	=18
2.BB/	gra-	2.B\	-ri-	2.g\	gra-	2.dd\	.
4BB/	-ti-	4A\	.	4g\	-ti-	4dd\	-ti-
2C/	-a	2G/	-a	2g\	-a	2a\	-a
!	!	!	!	!	!	!LO:LB:g=original	!
=19	=19	=19	=19	=19	=19	=19	=19
1D	ple-	2B\	gra-	1f	ple-	1dd	ple-
.	.	4B\	-ti-	.	.	.	.
.	.	4d\	-a	.	.	.	.
2E\	-na	4c\	ple-	2e\	-na	2g\	-na
.	.	4B\	-na	.	.	.	.
=20	=20	=20	=20	=20	=20	=20	=20
2.F\	Do-	2.A\	Do-	2.a\	Do-	2.cc\	Do-
!	!	!LO:SIC:v:s=4B-	!	!	!	!	!
4G\	-mi-	4B\	-mi-	4g\	-mi-	4b-X\	-mi-
2A\	-nus	2c\	-nus	2f\	-nus	2a\	-nus
!LO:LB:g=original	!	!	!	!	!	!	!
=21	=21	=21	=21	=21	=21	=21	=21
2B-X\	te-	(>2d\	te-	(>1f	te-	1.g	te-
2c\	.	1c)	.	.	.	.	.
2C/	.	.	.	2e\)	.	.	.
=22	=22	=22	=22	=22	=22	=22	=22
2F\	-cum	2c\	-cum	2f\	-cum	2a\	-cum,
2r	.	2f\	be-	2r	.	2r	.
2r	.	2f\	-ne-	2r	.	2r	.
!	!	!LO:LB:g=original	!	!	!	!	!
=23	=23	=23	=23	=23	=23	=23	=23
!	!	!	!	!	!	!LO:TX:a:t=P:problem=w źródle ta adnotacja zapisana za taktem 23, na pięciolinii	!
!	!	!	!	!	!	!LO:TX:b:i:t=V&colon; S&colon;	!
!	!	!	!	!	!	!LO:TX:b:t=1.	!
2r	.	2.e\	-dic-	1.r	.	1.r	.
2c\	be-	.	.	.	.	.	.
!	!	!	!	!LO:TX:b:t=1	!	!	!
.	.	4d\	.	.	.	.	.
2c\	-ne-	2c\	-ta	.	.	.	.
!	!	!	!	!	!	!LO:PB:g=original	!
=24	=24	=24	=24	=24	=24	=24	=24
2.A\	-dic-	1c	tu	2r	.	2r	.
.	.	.	.	2a\	be-	2ff\	be-
4G\	-ta	.	.	.	.	.	.
2F\	tu	2c\	in	2a\	-ne-	2ff\	-ne-
!	!	!	!	!LO:LB:g=original	!	!	!
=25	=25	=25	=25	=25	=25	=25	=25
2E\	in	(>2c\	mu-	2g\	-di-	4ee\	-dic-
.	.	.	.	.	.	4dd\	-ta
2F\	mu-	2A\)	.	4f\	-cta	4cc\	tu
.	.	.	.	4f\	tu	4cc\	in
2C/	-li-	2e\	-li-	2g\	in	2cc\	mu-
=26	=26	=26	=26	=26	=26	=26	=26
2C/	-e-	(>2e\	-e-	4a\	mu-	2cc\	-li-
.	.	.	.	4a\	-li-	.	.
2.BB-X/	.	2f\)	.	2a\	-e-	2.dd\	-e-
.	.	2d\	-ri-	2g#X\	-ri-	.	.
4BB-/	-ri-	.	.	.	.	4dd\	-ri-
=27	=27	=27	=27	=27	=27	=27	=27
1AA	-bus	1e	-bus	2a\	-bus	1cc#X	-bus
.	.	.	.	1a	et	.	.
2A\	et	2e\	et	.	.	2cc#\	et
!LO:LB:g=original	!	!	!	!	!	!	!
=28	=28	=28	=28	=28	=28	=28	=28
1Bn	be-	1d	be-	1g#X	be-	1dd	be-
2B\	-ne-	2d\	-ne-	2g#\	-ne-	2dd\	-ne-
=29	=29	=29	=29	=29	=29	=29	=29
2c\	-dic-	2c\	-dic-	2a\	-di-	2ee\	-di-
2G#X\	-tus	2B\	-tus	2g#X\	-ctus	2ee\	-ctus
!	!	!	!	!	!	!LO:LB:g=original	!
2A\	fruc-	2A\	fru-	2e\	fru-	2cc\	fru-
!	!	!	!	!LO:LB:g=original	!	!	!
=30	=30	=30	=30	=30	=30	=30	=30
2E\	-tus	2G#X/	-ctus	2e\	-ctus	2b\	-ctus
2A\	ven-	2A\	ven-	2e\	ven-	2cc\	ven-
2Gn\	-tris	2B\	-tris	2gn\	-tris	2ee\	-tris
!	!	!LO:LB:g=original	!	!	!	!	!
=31	=31	=31	=31	=31	=31	=31	=31
1.F	tu-	1c	tu-	1.a	tu-	(>1ee	tu-
.	.	2A\	.	.	.	2dd#X\)	.
=32	=32	=32	=32	=32	=32	=32	=32
2E\	-i	2B\	-i	2g#X\	-i	2ee\	-i
2C/	be-	2e\	be-	2gn\	be-	2g\	be-
2E\	-ne-	2c\	-ne-	2e\	-ne-	2cc\	-ne-
=33	=33	=33	=33	=33	=33	=33	=33
(>2F\	-dic-	2f\	-di-	(>2c\	-di-	(>2a\	-di-
2D\)	.	1A	-ctus	2f\)	.	2dd\)	.
2F\	-tus	.	.	2f\	-ctus	2dd\	-ctus
=34	=34	=34	=34	=34	=34	=34	=34
(>2G\	fru-	1B	fru-	(>2d\	fru-	(>2b\	fru-
2E\)	.	.	.	2g\)	.	2ee\)	.
2G\	-ctus	2B\	-ctus	2g\	-ctus	2ee\	-ctus
!LO:LB:g=original	!	!	!	!	!	!	!
=35	=35	=35	=35	=35	=35	=35	=35
(>2A\	ven-	1c	fru-	(>2e\	ven-	(>2cc\	ven-
2F\)	.	.	.	2a\)	.	2ff\)	.
2A\	-tris	2c\	-ctus	2a\	-tris	2ff\	-tris
!	!	!	!	!LO:LB:g=original	!	!LO:LB:g=original	!
=36	=36	=36	=36	=36	=36	=36	=36
(>2B\	ven-	1B	ven-	(>2f\	ven-	1dd	ven-
2G\)	.	.	.	2g\)	.	.	.
2c\	-tris	2c\	-tris	2e\	-tris	2ee\	-tris
=37	=37	=37	=37	=37	=37	=37	=37
2F\	tu-	1c	tu-	(>2a\	tu-	1.dd	tu-
2G\	.	.	.	1g)	.	.	.
2GG/	.	2B\	.	.	.	.	.
=38	=38	=38	=38	=38	=38	=38	=38
!LO:TX:a:t=P:problem=w źródle ta adnotacja zapisana za taktem 38, na pięciolinii	!	!LO:TX:a:t=P:problem=w źródle ta adnotacja zapisana za taktem 38, na pięciolinii	!	!LO:TX:a:t=P:problem=w źródle ta adnotacja zapisana za taktem 38, na pięciolinii	!	!	!
!LO:TX:b:i:t=Alleluia da Capo.	!	!LO:TX:b:i:t=alleluia\nda Capo.	!	!LO:TX:b:i:t=Alleluia Da Capo.	!	!	!
1.C	-i.	1.c	-i.	1.g	-i.	1.ee	-i.
==39	==39	==39	==39	==39	==39	==39	==39
!	!	!	!	!	!	!LO:TX:a:t=P:problem=w źródle ta adnotacja zapisana za taktem 39, na pięciolinii	!
1Cyy	Al-	1eyy	Al-	1gyy	Al-	1cc	Al-
2c\yy	-le-	2e\yy	-le-	2g\yy	-le-	2cc\	-le-
=40	=40	=40	=40	=40	=40	=40	=40
(>2G\yy	-lu-	2d\yy	-lu-	2g\yy	-lu-	2b\	-lu-
2F\)yy	.	2d\yy	-ia	2g\yy	-ia	2b\	-ja
2E\yy	-ia	2e\yy	al-	2g\yy	al-	2cc\	al-
=41	=41	=41	=41	=41	=41	=41	=41
1Dyy	al-	1fyy	-le-	1fyy	-le-	1cc	-le-
2D\yy	-le-	2d\yy	-lu-	2f\yy	-lu-	2b\	-lu-
=42	=42	=42	=42	=42	=42	=42	=42
1Cyy	-lu-	2G/yy	-ia	2e\yy	-ia	1cc	-ja
.	.	2A\yy	al-	(>2e\yy	al-	.	.
2D\yy	-ia	2B\yy	.	2f\)yy	.	(>4b\L	al-
.	.	.	.	.	.	4a\)J	.
=43	=43	=43	=43	=43	=43	=43	=43
2E\yy	al-	2c\yy	.	(>2g\yy	-le-	2g\	-le-
1F#Xyy	-le-	2.d\yy	.	2.f#X\)yy	.	1a	-lu-
.	.	4c\yy	-le-	4e\yy	-lu-	.	.
=44	=44	=44	=44	=44	=44	=44	=44
2G\yy	-lu-	2B\yy	-lu-	2d\yy	-ia	2b\	-ja
2D\yy	-ia	2A\yy	-ia	(>2f#X\yy	al-	1dd	al-
2E\yy	al-	2e\yy	al-	2g\)yy	.	.	.
!	!	!	!	!	!	!LO:LB:g=original	!
=45	=45	=45	=45	=45	=45	=45	=45
(>2C/yy	-le-	2e\yy	-le-	1gyy	-le-	(>4cc\L	-le-
.	.	.	.	.	.	4b\)J	.
2D\)yy	.	1dyy	-lu-	.	.	1a	-lu-
2D\yy	-lu-	.	.	2f#X\yy	-lu-	.	.
=46	=46	=46	=46	=46	=46	=46	=46
2GG/yy	-ia	2d\yy	-ia	2g\yy	-ia	2b\	-ja
4G\yy	al-	2d\yy	al-	(>2d\yy	al-	1b	al-
4F\yy	.	.	.	.	.	.	.
2E\yy	.	2e\yy	-le-	2e\)yy	.	.	.
=47	=47	=47	=47	=47	=47	=47	=47
2A\yy	-le-	1eyy	-lu-	2e\yy	-le-	(>2cc\	-le-
2E\yy	.	.	.	2g#X\yy	.	2ee\)	.
2F\yy	.	2c\yy	-ia	2a\yy	.	2cc\	-lu-
=48	=48	=48	=48	=48	=48	=48	=48
2D\yy	.	2f\yy	al-	1ayy	.	2b\	-ja
2.E\yy	.	1eyy	-le-	.	.	1b	al-
.	.	.	.	2g#X\yy	-lu-	.	.
4E\yy	-lu-	.	.	.	.	.	.
=49	=49	=49	=49	=49	=49	=49	=49
2AA/yy	-ia	2e\yy	-lu-	2a\yy	-ia	[>1.cc	-le-
(>2E\yy	al-	2c\yy	-ia	(>2gn\yy	al-	.	.
2F\)yy	.	2A\yy	al-	2f\)yy	.	.	.
=50	=50	=50	=50	=50	=50	=50	=50
(<4C/yy	-le-	2G/yy	-le-	2e\yy	-le-	1cc]	.
4E/yy	.	.	.	.	.	.	.
2G\)yy	.	1Gyy	-lu-	1dyy	-lu-	.	.
2GG/yy	-lu-	.	.	.	.	2b\	-lu-
=51	=51	=51	=51	=51	=51	=51	=51
1.Cyy	-ia	1.Gyy	-ia	1.eyy	-ia	1.cc	-ja.
==	==	==	==	==	==	==	==
*-	*-	*-	*-	*-	*-	*-	*-
!!!system-decoration: [(s1,s2,s3,s4)]
!!!RDF**kern: > = above
!!!RDF**kern: < = below
!!!EED: Antoni Szymański
!!!EEV: 2021-02-04
!!!ENC: Andrzej Kubiczek
!!!END: 2021-01-28
!!!YEC: Copyright 2022 Narodowy Instytut Fryderyka Chopina (https://polishscores.org)
!!!YEM: License CC-BY-4.0 (https://creativecommons.org/licenses/by/4.0)
